X:2
T:No.22 The Man From Bundoran
C:reel
M:4/4
L:1/8
K:D
BEEE BEdE|BEEE BcdB|cAAA cded|
|[1cdef e2dc:|[2cdefe2de||f2fe dcBA|
fffed3e|f2fe fgaf|ecAc e2g2|fffe dcBA|
fffed3e|fffe fgaf|ecAce2dc||
